X:755
T:Reel 755
M:4/4
K:Dmix
L:1/8
AG|FEFA D2AG|FGEF DGAG|FEFG ABAG|EDCE GBAG|FEDG A2AG|FGFE FGAB|cAGE FEFG|Addc d2|de|fedc dcAG|FGFE FGAB|cGEG cGEC|CECE GccG|FEFG dcAG|FEFG A2Ac|dBcA G2|
